.icons/oomox-ad/48x48/apps/document-viewer.svg

<svg xmlns="http://www.w3.org/2000/svg" width="48" height="48" version="1">
 <path style="opacity:0.2" d="M 40,43 V 7 C 40,5.892 39.080125,5 37.9375,5 H 9.0625 C 7.919875,5 7,5.892 7,7 v 36 c 0,1.108 0.919875,2 2.0625,2 h 28.875 C 39.080125,45 40,44.108 40,43 Z"/>
 <path style="fill:#ce3f39" d="M 40,42 V 6 C 40,4.892 39.080125,4 37.9375,4 H 9.0625 C 7.919875,4 7,4.892 7,6 v 36 c 0,1.108 0.919875,2 2.0625,2 h 28.875 C 39.080125,44 40,43.108 40,42 Z"/>
 <path style="opacity:0.3" d="M 12 7 C 10.892 7 10 7.892 10 9 L 10 17 C 10 18.108 10.892 19 12 19 L 20 19 C 21.108 19 22 18.108 22 17 L 22 9 C 22 7.892 21.108 7 20 7 L 12 7 z M 25 7 L 25 9 L 37 9 L 37 7 L 25 7 z M 25 12 L 25 14 L 37 14 L 37 12 L 25 12 z M 25 17 L 25 19 L 37 19 L 37 17 L 25 17 z M 10 22 L 10 24 L 37 24 L 37 22 L 10 22 z M 10 27 L 10 29 L 37 29 L 37 27 L 10 27 z M 10 32 L 10 34 L 37 34 L 37 32 L 10 32 z M 10 37 L 10 39 L 37 39 L 37 37 L 10 37 z"/>
 <circle opacity=".2" cx="36" cy="37" r="11"/>
 <circle style="fill:#5b5b5b" cx="36" cy="36" r="11"/>
 <path style="fill:#ffffff" d="M 36 31 C 34.4492 31.0151 32.887909 31.369206 31.537109 32.134766 C 30.998699 32.485466 30.352334 32.938191 29.865234 33.394531 C 29.098744 34.145111 28.4427 35.022253 28 36.001953 C 29.2149 38.682053 31.885919 40.645447 34.824219 40.935547 C 36.751619 41.153717 38.768591 40.820918 40.462891 39.867188 C 41.001281 39.516486 41.647666 39.063762 42.134766 38.607422 C 42.901266 37.856832 43.5573 36.981553 44 36.001953 C 42.785 33.321953 40.114181 31.356306 37.175781 31.066406 C 36.785901 31.020906 36.39251 31 36 31 z M 36.003906 33 C 37.608666 32.96445 39.028305 34.401626 38.998047 35.998047 C 39.049467 37.762439 37.292462 39.284628 35.554688 38.955078 C 33.799537 38.748989 32.567337 36.779351 33.144531 35.111328 C 33.513187 33.883404 34.7182 32.984821 36.003906 33 z M 36 35 A 1 1.0002 0 0 0 35 36 A 1 1.0002 0 0 0 36 37 A 1 1.0002 0 0 0 37 36 A 1 1.0002 0 0 0 36 35 z"/>
 <path style="fill:#ffffff;opacity:0.2" d="M 9.0625 4 C 7.919875 4 7 4.892 7 6 L 7 7 C 7 5.892 7.919875 5 9.0625 5 L 37.9375 5 C 39.080125 5 40 5.892 40 7 L 40 6 C 40 4.892 39.080125 4 37.9375 4 L 9.0625 4 z"/>
</svg>

<svg xmlns="http://www.w3.org/2000/svg" width="48" height="48" version="1">
 <path fill="#e4e4e4" d="m40 42v-36c0-1.108-0.892-2-2-2h-28c-1.108 0-2 0.892-2 2v36c0 1.108 0.892 2 2 2h28c1.108 0 2-0.892 2-2z"/>
 <path fill="#fff" opacity=".2" d="m9.9998 4c-1.108 0-2 0.892-2 2v1c0-1.108 0.892-2 2-2h28c1.108 0 2 0.892 2 2v-1c0-1.108-0.892-2-2-2z"/>
 <path opacity=".2" d="m8.0002 42v1c0 1.108 0.892 2 2 2h28c1.108 0 2-0.892 2-2v-1c0 1.108-0.892 2-2 2h-28c-1.1074 0-1.9994-0.892-1.9994-2z"/>
 <circle opacity=".2" cx="36" cy="37" r="11"/>
 <circle fill="#c03630" cx="36" cy="36" r="11"/>
 <path fill="#fff" fill-rule="evenodd" d="m36 31c-1.5508 0.0151-3.1121 0.36944-4.4629 1.135-0.53841 0.3507-1.1848 0.80366-1.6719 1.26-0.76649 0.75058-1.4225 1.6263-1.8652 2.606 1.2149 2.6801 3.8859 4.6445 6.8242 4.9346 1.9274 0.21817 3.9444-0.11487 5.6387-1.0686 0.53839-0.3507 1.1848-0.80366 1.6719-1.26 0.7665-0.75059 1.4225-1.6264 1.8652-2.606-1.215-2.68-3.8858-4.6448-6.8242-4.9347-0.38988-0.0455-0.78329-0.0665-1.1758-0.0665zm0 2.0004c1.607-0.0356 3.0303 1.4021 3 3.0007 0.05149 1.7668-1.709 3.2916-3.4492 2.9616-1.7576-0.20637-2.9921-2.1782-2.4141-3.8485 0.36917-1.2296 1.5758-2.129 2.8633-2.1138zm0 2.0004a1 1.0002 0 0 0 -1 1.0002 1 1.0002 0 0 0 1 1.0002 1 1.0002 0 0 0 0.99999 -1.0002 1 1.0002 0 0 0 -1 -0.999z"/>
</svg>
